symbols/web/filter_5/materialsymbolssharp/filter_5_wght700grad200_48px.svg

<svg xmlns="http://www.w3.org/2000/svg" height="48" width="48"><path d="M21.6 30.15h12.45v-11.7H25V13.5h9.05v-3.4H21.6v11.8h9v4.8h-9Zm-11.9 8.1V2h36.2v36.25Zm4.55-4.55h27.1V6.6h-27.1ZM2.15 45.8V9.6H6.7v31.65h31.65v4.55Zm12.1-12.1V6.6v27.1Z"/></svg>

<svg xmlns="http://www.w3.org/2000/svg" height="48" width="48"><path d="M21.6 30.15H34.05V18.45H25V13.5H34.05V10.1H21.6V21.9H30.6V26.7H21.6ZM9.7 38.25V2H45.9V38.25ZM14.25 33.7H41.35V6.6H14.25ZM2.15 45.8V9.6H6.7V41.25H38.35V45.8ZM14.25 33.7V6.6V33.7Z"/></svg>
